source/img/icon-detective.svg

<svg width="31" height="27" viewBox="0 0 31 27" fill="none" xmlns="http://www.w3.org/2000/svg">
<path d="M15.7697 8.21716C15.443 8.21716 15.1777 8.48402 15.1777 8.81328C15.1777 9.14231 15.443 9.4094 15.7697 9.4094C16.0964 9.4094 16.3617 9.14231 16.3617 8.81328C16.3617 8.48402 16.0964 8.21716 15.7697 8.21716Z" fill="#00B2FF"/>
<path d="M29.148 11.7939H26.8446C25.6304 8.30245 23.8686 2.18035 20.6771 0.447642C19.0809 -0.417896 17.5721 0.186607 17.0046 1.41471C16.7632 1.93678 16.2811 2.21132 15.7696 2.21132C15.2511 2.21132 14.7729 1.93072 14.5345 1.41517C13.9872 0.228987 12.5144 -0.430936 10.9742 0.321898C7.73154 1.90767 5.91819 8.27614 4.69448 11.7939H2.39113C1.40999 11.7939 0.615234 12.5941 0.615234 13.5823C0.615234 14.5682 1.41184 15.3707 2.39113 15.3707H29.148C30.1291 15.3707 30.9239 14.5703 30.9239 13.5823C30.9239 12.5961 30.1273 11.7939 29.148 11.7939ZM6.77399 9.40947H13.4017C13.7287 9.40947 13.9937 9.14238 13.9937 8.81335C13.9937 8.48409 13.7287 8.21723 13.4017 8.21723H7.18791C8.97236 3.25336 10.6393 1.81103 11.4912 1.39445C12.4206 0.940373 13.1855 1.3204 13.4611 1.91792C13.8954 2.85727 14.7937 3.40356 15.7696 3.40356C16.7477 3.40356 17.6449 2.85518 18.078 1.91792C18.3617 1.3034 19.1306 0.963193 20.1154 1.49714C20.9712 1.96193 22.6331 3.45223 24.351 8.21723H18.1374C17.8105 8.21723 17.5455 8.48409 17.5455 8.81335C17.5455 9.14261 17.8105 9.40947 18.1374 9.40947H24.7654C25.0646 10.2785 25.3754 11.1752 25.5904 11.7939H5.94894C6.1633 11.1769 6.47338 10.2822 6.77399 9.40947ZM29.148 14.1784H2.39113C2.06463 14.1784 1.79917 13.9109 1.79917 13.5823C1.79917 13.253 2.06416 12.9862 2.39113 12.9862H29.148C29.4745 12.9862 29.74 13.2535 29.74 13.5823C29.74 13.9113 29.4747 14.1784 29.148 14.1784Z" fill="#00B2FF"/>
<path d="M14.5859 17.7552H5.11443C4.78746 17.7552 4.52246 18.0221 4.52246 18.3514V20.7358C4.52246 23.6941 6.91252 26.1009 9.85015 26.1009C12.076 26.1009 14.0462 24.7222 14.8298 22.6451C15.425 22.3717 16.1146 22.3717 16.7098 22.6451C17.4935 24.7222 19.4636 26.1007 21.6895 26.1007C24.6271 26.1007 27.0172 23.6941 27.0172 20.7356V18.3511C27.0172 18.0219 26.7522 17.755 26.4252 17.755H16.9537C16.6268 17.755 16.3618 18.0219 16.3618 18.3511V18.9472H15.1778V18.3511C15.1778 18.0221 14.9129 17.7552 14.5859 17.7552ZM9.85015 24.9087C7.5653 24.9087 5.70639 23.0367 5.70639 20.7358V18.9475H13.9939V20.7358C13.9939 23.0428 12.1449 24.9087 9.85015 24.9087ZM17.5457 18.9475H25.8332V20.7358C25.8332 23.0367 23.9743 24.9087 21.6895 24.9087C19.3889 24.9087 17.5457 23.0372 17.5457 20.7358V18.9475ZM16.3618 20.1397V20.7358C16.3618 20.9263 16.3726 21.1161 16.3923 21.3045C15.9809 21.2288 15.5587 21.2288 15.1473 21.3045C15.167 21.1161 15.1778 20.9263 15.1778 20.7358V20.1397H16.3618Z" fill="#00B2FF"/>
<path d="M9.84997 22.5241C8.87068 22.5241 8.07407 21.7216 8.07407 20.7357C8.07407 20.4064 7.80907 20.1396 7.4821 20.1396C7.15513 20.1396 6.89014 20.4064 6.89014 20.7357C6.89014 22.379 8.2179 23.7163 9.84997 23.7163C10.1769 23.7163 10.4419 23.4492 10.4419 23.1202C10.4419 22.7909 10.1769 22.5241 9.84997 22.5241Z" fill="#00B2FF"/>
<path d="M21.6896 23.7163C23.3217 23.7163 24.6495 22.379 24.6495 20.7357C24.6495 20.4064 24.3845 20.1396 24.0575 20.1396C23.7305 20.1396 23.4655 20.4064 23.4655 20.7357C23.4655 21.7216 22.6689 22.5241 21.6896 22.5241C21.3627 22.5241 21.0977 22.7909 21.0977 23.1202C21.0977 23.4492 21.3627 23.7163 21.6896 23.7163Z" fill="#00B2FF"/>
</svg>

<svg xmlns="http://www.w3.org/2000/svg" width="31" height="27" fill="none"><path d="M15.77 8.217a.594.594 0 00-.592.596c0 .33.265.596.592.596a.594.594 0 00.592-.596.594.594 0 00-.592-.596z"/><path d="M29.148 11.794h-2.303C25.63 8.302 23.869 2.18 20.677.448c-1.596-.866-3.105-.261-3.672.967a1.34 1.34 0 01-1.235.796 1.34 1.34 0 01-1.236-.796C13.987.23 12.514-.43 10.974.322c-3.242 1.586-5.056 7.954-6.28 11.472H2.391c-.981 0-1.776.8-1.776 1.788 0 .986.797 1.789 1.776 1.789h26.757c.981 0 1.776-.8 1.776-1.789 0-.986-.797-1.788-1.776-1.788zM6.774 9.409h6.628a.594.594 0 00.592-.596.594.594 0 00-.592-.596H7.188c1.784-4.964 3.451-6.406 4.303-6.823.93-.454 1.694-.074 1.97.524a2.522 2.522 0 002.309 1.486c.978 0 1.875-.549 2.308-1.486.284-.615 1.053-.955 2.037-.42.856.464 2.518 1.954 4.236 6.72h-6.214a.594.594 0 00-.591.595c0 .33.265.596.591.596h6.628l.825 2.385H5.95l.825-2.385zm22.374 4.77H2.391a.595.595 0 01-.592-.597c0-.329.265-.596.592-.596h26.757c.326 0 .592.268.592.596a.594.594 0 01-.592.596zM14.586 17.755H5.114a.594.594 0 00-.592.596v2.385c0 2.958 2.39 5.365 5.328 5.365a5.317 5.317 0 004.98-3.456 2.257 2.257 0 011.88 0 5.317 5.317 0 004.98 3.456c2.937 0 5.327-2.407 5.327-5.365V18.35a.594.594 0 00-.592-.596h-9.471a.594.594 0 00-.592.596v.596h-1.184v-.596a.594.594 0 00-.592-.596zM9.85 24.91c-2.285 0-4.144-1.872-4.144-4.173v-1.788h8.288v1.788c0 2.307-1.85 4.173-4.144 4.173zm7.696-5.961h8.287v1.788c0 2.3-1.859 4.173-4.143 4.173-2.301 0-4.144-1.872-4.144-4.173v-1.788zm-1.184 1.192v.596c0 .19.01.38.03.569a3.441 3.441 0 00-1.245 0c.02-.189.03-.379.03-.57v-.595h1.185z"/><path d="M9.85 22.524c-.98 0-1.776-.802-1.776-1.788a.594.594 0 00-.592-.596.594.594 0 00-.592.596c0 1.643 1.328 2.98 2.96 2.98a.594.594 0 00.592-.596.594.594 0 00-.592-.596zM21.69 23.716c1.632 0 2.96-1.337 2.96-2.98a.594.594 0 00-.592-.596.594.594 0 00-.593.596c0 .986-.796 1.788-1.775 1.788a.594.594 0 00-.592.596c0 .33.265.596.592.596z"/></svg>
